MonoIcons/scalable/status/camera-hardware-disabled-symbolic.svg

<?xml version="1.0" encoding="UTF-8"?>
<svg height="16px" viewBox="0 0 16 16" width="16px" xmlns="http://www.w3.org/2000/svg">
    <path d="m 6.5 0 c -0.265625 0 -0.519531 0.105469 -0.707031 0.292969 l -1.707031 1.707031 h -1.085938 c -1.644531 0 -3 1.355469 -3 3 h 2 c 0 -0.570312 0.429688 -1 1 -1 h 1.5 c 0.265625 0 0.519531 -0.105469 0.707031 -0.292969 l 1.707031 -1.707031 h 2.171876 l 1.707031 1.707031 c 0.1875 0.1875 0.441406 0.292969 0.707031 0.292969 h 1.5 c 0.570312 0 1 0.429688 1 1 h 2 c 0 -1.644531 -1.355469 -3 -3 -3 h -1.085938 l -1.707031 -1.707031 c -0.1875 -0.1875 -0.441406 -0.292969 -0.707031 -0.292969 z m 1.5 4 c -1.007812 0 -1.929688 0.378906 -2.636719 1 h 5.273438 c -0.707031 -0.621094 -1.628907 -1 -2.636719 -1 z m -8 7 v 1 c 0 1.644531 1.355469 3 3 3 h 10 c 1.644531 0 3 -1.355469 3 -3 v -1 h -2 v 1 c 0 0.570312 -0.429688 1 -1 1 h -10 c -0.570312 0 -1 -0.429688 -1 -1 v -1 z m 5.363281 0 c 0.707031 0.621094 1.628907 1 2.636719 1 s 1.929688 -0.378906 2.636719 -1 z m 0 0" fill="#2e3434" fill-opacity="0.34902"/>
    <path d="m 0 6 h 16 v 4 h -16 z m 0 0" fill="#2e3436"/>
</svg>

<svg width="16" height="16" viewBox="0 0 16 16" fill="none" xmlns="http://www.w3.org/2000/svg">
<g clip-path="url(#clip0_231_1109)">
<path d="M6.5 0C6.23438 0 5.98047 0.105469 5.79297 0.292969L4.08594 2H3C1.35547 2 0 3.35547 0 5H2C2 4.42969 2.42969 4 3 4H4.5C4.76562 4 5.01953 3.89453 5.20703 3.70703L6.91406 2H9.08594L10.793 3.70703C10.9805 3.89453 11.2344 4 11.5 4H13C13.5703 4 14 4.42969 14 5H16C16 3.35547 14.6445 2 13 2H11.9141L10.207 0.292969C10.0195 0.105469 9.76562 0 9.5 0L6.5 0ZM8 4C6.99219 4 6.07031 4.37891 5.36328 5H10.6367C9.92969 4.37891 9.00781 4 8 4ZM0 11V12C0 13.6445 1.35547 15 3 15H13C14.6445 15 16 13.6445 16 12V11H14V12C14 12.5703 13.5703 13 13 13H3C2.42969 13 2 12.5703 2 12V11H0ZM5.36328 11C6.07031 11.6211 6.99219 12 8 12C9.00781 12 9.92969 11.6211 10.6367 11H5.36328Z" fill="#2E3436" fill-opacity="0.5"/>
<path d="M0 6H16V10H0V6Z" fill="#2E3436"/>
</g>
<defs>
<clipPath id="clip0_231_1109">
<rect width="16" height="16" fill="white"/>
</clipPath>
</defs>
</svg>
